svg/transport/UFO_2_fill.svg

<?xml version="1.0" encoding="UTF-8"?>
<svg width="24px" height="24px" viewBox="0 0 24 24" version="1.1" xmlns="http://www.w3.org/2000/svg" xmlns:xlink="http://www.w3.org/1999/xlink">
    <title>UFO_2_fill</title>
    <g id="Icon" stroke="none" stroke-width="1" fill="none" fill-rule="evenodd">
        <g id="Transport" transform="translate(-144.000000, -336.000000)">
            <g id="UFO_2_fill" transform="translate(144.000000, 336.000000)">
                <path d="M24,0 L24,24 L0,24 L0,0 L24,0 Z M12.5935,23.2578 L12.5819,23.2595 L12.5109,23.295 L12.4919,23.2987 L12.4767,23.295 L12.4057,23.2595 C12.3958,23.2564 12.387,23.259 12.3821,23.2649 L12.378,23.2758 L12.3609,23.7031 L12.3659,23.7235 L12.3769,23.7357 L12.4805,23.8097 L12.4953,23.8136 L12.5071,23.8097 L12.6107,23.7357 L12.6233,23.7197 L12.6267,23.7031 L12.6096,23.2758 C12.6076,23.2657 12.601,23.2593 12.5935,23.2578 Z M12.8584,23.1453 L12.8445,23.1473 L12.6598,23.2397 L12.6499,23.2499 L12.6472,23.2611 L12.6651,23.6906 L12.6699,23.7034 L12.6784,23.7105 L12.8793,23.8032 C12.8914,23.8069 12.9022,23.803 12.9078,23.7952 L12.9118,23.7812 L12.8777,23.1665 C12.8753,23.1546 12.8674,23.147 12.8584,23.1453 Z M12.143,23.1473 C12.1332,23.1424 12.1222,23.1453 12.1156,23.1526 L12.1099,23.1665 L12.0758,23.7812 C12.0751,23.7927 12.0828,23.8019 12.0926,23.8046 L12.1083,23.8032 L12.3092,23.7105 L12.3186,23.7024 L12.3225,23.6906 L12.3404,23.2611 L12.3372,23.2485 L12.3278,23.2397 L12.143,23.1473 Z" id="MingCute" fill-rule="nonzero"></path>
                <path d="M19.5266,8.20571 C18.9735,7.7584 18.3308,7.33218 17.6161,6.93861 C17.0802,5.18616 15.6755,3.80103 13.8629,3.31534 L13.7978,3.2979 C11.9851,2.8122 10.076,3.3094 8.73574,4.55914 C7.92007,4.54265 7.1504,4.59043 6.44775,4.70125 C5.48492,4.8531 4.60016,5.13085 3.89012,5.56458 C3.17402,6.00201 2.5865,6.63225 2.35934,7.48001 C2.13219,8.32777 2.32587,9.16734 2.72732,9.90422 C3.12537,10.6349 3.75272,11.3178 4.51062,11.9307 C6.02859,13.1583 8.22111,14.227 10.7245,14.8978 C13.2279,15.5686 15.6611,15.7393 17.5895,15.4352 C18.5523,15.2833 19.437,15.0056 20.1471,14.5718 C20.8632,14.1344 21.4507,13.5042 21.6779,12.6564 C21.905,11.8086 21.7113,10.9691 21.3099,10.2322 C20.9118,9.50155 20.2845,8.81863 19.5266,8.20571 Z M13.2802,5.22975 C11.9446,4.8719 10.5258,5.3632 9.6975,6.47031 C9.15963,7.18926 9.39504,7.94326 9.93093,8.21181 C10.567,8.53056 11.355,8.85501 12.2774,9.10217 C13.1998,9.34934 14.0445,9.46236 14.7547,9.50434 C15.3531,9.53971 15.934,9.00443 15.8276,8.11287 C15.6639,6.73995 14.6808,5.60504 13.3452,5.24719 L13.2802,5.22975 Z M15.9922,16.8757 C15.9236,16.3277 15.4237,15.9391 14.8757,16.0077 C14.3277,16.0763 13.9391,16.5762 14.0077,17.1242 L14.1079,17.9242 C14.1766,18.4722 14.6764,18.8608 15.2244,18.7922 C15.7724,18.7235 16.161,18.2237 16.0924,17.6756 L15.9922,16.8757 Z M7.87421,15.9854 C8.14234,15.5026 7.96829,14.8938 7.48546,14.6257 C7.00263,14.3576 6.39386,14.5316 6.12573,15.0144 L5.62593,15.9144 C5.3578,16.3973 5.53185,17.0061 6.01468,17.2742 C6.49751,17.5423 7.10628,17.3683 7.37441,16.8854 L7.87421,15.9854 Z M16.393,20.0756 C16.3244,19.5276 15.8245,19.139 15.2765,19.2076 C14.7285,19.2763 14.3399,19.7762 14.4085,20.3242 L14.5087,21.1242 C14.5773,21.6722 15.0772,22.0608 15.6252,21.9921 C16.1732,21.9235 16.5618,21.4236 16.4932,20.8756 L16.393,20.0756 Z M5.87501,19.5855 C6.14314,19.1026 5.96909,18.4939 5.48626,18.2257 C5.00343,17.9576 4.39465,18.1316 4.12652,18.6145 L3.62672,19.5145 C3.35859,19.9973 3.53264,20.6061 4.01547,20.8742 C4.4983,21.1423 5.10707,20.9683 5.3752,20.4855 L5.87501,19.5855 Z" id="形状" fill="#09244B"></path>
            </g>
        </g>
    </g>
</svg>

<svg xmlns="http://www.w3.org/2000/svg" width="24" height="24"><g fill="none" fill-rule="evenodd"><path d="M24 0v24H0V0h24ZM12.594 23.258l-.012.002-.071.035-.02.004-.014-.004-.071-.036c-.01-.003-.019 0-.024.006l-.004.01-.017.428.005.02.01.013.104.074.015.004.012-.004.104-.074.012-.016.004-.017-.017-.427c-.002-.01-.009-.017-.016-.018Zm.264-.113-.014.002-.184.093-.01.01-.003.011.018.43.005.012.008.008.201.092c.012.004.023 0 .029-.008l.004-.014-.034-.614c-.003-.012-.01-.02-.02-.022Zm-.715.002a.023.023 0 0 0-.027.006l-.006.014-.034.614c0 .012.007.02.017.024l.015-.002.201-.093.01-.008.003-.011.018-.43-.003-.012-.01-.01-.184-.092Z"/><path fill="#09244B" d="M19.527 8.206a13.073 13.073 0 0 0-1.91-1.267 5.382 5.382 0 0 0-3.754-3.624l-.065-.017a5.382 5.382 0 0 0-5.062 1.261 13.075 13.075 0 0 0-2.288.142c-.963.152-1.848.43-2.558.864-.716.437-1.303 1.067-1.53 1.915-.228.848-.034 1.687.367 2.424.398.73 1.026 1.414 1.784 2.027 1.518 1.227 3.71 2.296 6.214 2.967 2.503.67 4.936.841 6.865.537.962-.152 1.847-.43 2.557-.863.716-.438 1.304-1.068 1.53-1.916.228-.847.034-1.687-.367-2.424-.398-.73-1.025-1.413-1.783-2.026ZM13.28 5.23a3.381 3.381 0 0 0-3.582 1.24c-.538.72-.303 1.473.233 1.742a12.426 12.426 0 0 0 4.824 1.292c.598.036 1.179-.5 1.073-1.391a3.381 3.381 0 0 0-2.483-2.866l-.065-.017Zm2.712 11.646a1 1 0 0 0-1.984.248l.1.8a1 1 0 0 0 1.984-.248l-.1-.8Zm-8.118-.89a1 1 0 1 0-1.748-.972l-.5.9a1 1 0 0 0 1.748.971l.5-.9Zm8.519 4.09a1 1 0 1 0-1.985.248l.1.8a1 1 0 1 0 1.985-.248l-.1-.8Zm-10.518-.49a1 1 0 0 0-1.748-.971l-.5.9a1 1 0 1 0 1.748.97l.5-.9Z"/></g></svg>
